!!!COM: Marenzio, Luca
!!!CDT:
!!!PTL: Il quarto libro de madrigali a sei voci
!!!PPP: Venice
!!!PPR: Giacomo Vincenzi
!!!PDT: 1587
!!!PUB-format:
!!!RISM: M 510
!!!rime: 183
!!!OTL: Di nettare amoroso ebro la mente
!!!AGN: Madrigal
!!!SCT: Trm0183b
!!!SCA: Trm0183b
!!!original-voices: 6
!!!extant-voices: 6
!!!complete: Y
!!!final: (A)D
**kern	**text	**kern	**text	**kern	**text	**kern	**text	**kern	**text	**kern	**text
*part6	*part6	*part5	*part5	*part4	*part4	*part3	*part3	*part2	*part2	*part1	*part1
*staff6	*staff6	*staff5	*staff5	*staff4	*staff4	*staff3	*staff3	*staff2	*staff2	*staff1	*staff1
*I"Basso	*	*I"Sesto	*	*I"Tenore	*	*I"Alto	*	*I"Quinto	*	*I"Canto	*
*I'B	*	*I'VI	*	*I'T	*	*I'A	*	*I'V	*	*I'C	*
*oclefF3	*	*oclefC3	*	*oclefC3	*	*oclefC2	*	*oclefG2	*	*oclefG2	*
*clefF4	*	*clefGv2	*	*clefGv2	*	*clefG2	*	*clefG2	*	*clefG2	*
*k[b-]	*	*k[b-]	*	*k[b-]	*	*k[b-]	*	*k[b-]	*	*k[b-]	*
*d:	*	*d:	*	*d:	*	*d:	*	*d:	*	*d:	*
*omet(C)	*	*omet(C)	*	*omet(C)	*	*omet(C)	*	*omet(C)	*	*omet(C)	*
*M4/2	*	*M4/2	*	*M4/2	*	*M4/2	*	*M4/2	*	*M4/2	*
=1	=1	=1	=1	=1	=1	=1	=1	=1	=1	=1	=1
!!LO:TX:a:t=Prima parte.
0r	.	0r	.	1d	Di	1f	Di	1a	Di	1dd	Di
.	.	.	.	2.A	net-	2.e	net-	2.a	net-	2.cc#X	net-
.	.	.	.	4A	-ta-	4e	-ta-	4a	-ta-	4cc#i	-ta-
=2	=2	=2	=2	=2	=2	=2	=2	=2	=2	=2	=2
0r	.	0r	.	2A	-re a-	2e	-re a-	2a	-re a-	2cc#i	-re a-
.	.	.	.	2G	-mo-	2g	-mo-	2bnX	-mo-	2dd	-mo-
.	.	.	.	1c	-ro-	1g	-ro-	2cc	-ro-	1ee	-ro-
.	.	.	.	.	.	.	.	2cc	-so	.	.
=3	=3	=3	=3	=3	=3	=3	=3	=3	=3	=3	=3
0r	.	0r	.	1B-y	-so e-	2b-y	-so e-	4r	.	4.ff	-so e-
.	.	.	.	.	.	.	.	4.ff	e-	.	.
.	.	.	.	.	.	.	.	.	.	8ee	.
.	.	.	.	.	.	1f	-bro	.	.	4.dd	.
.	.	.	.	.	.	.	.	8ee	.	.	.
.	.	.	.	.	.	.	.	4.dd	.	.	.
.	.	.	.	.	.	.	.	.	.	8cc	.
.	.	.	.	[1B-y	-bro	.	.	.	.	4.b-y	.
.	.	.	.	.	.	.	.	8cc	.	.	.
.	.	.	.	.	.	.	.	4.b-y	.	.	.
.	.	.	.	.	.	.	.	.	.	8cc	.
.	.	.	.	.	.	2b-y	la	.	.	8ddL	.
.	.	.	.	.	.	.	.	8ccL	.	8eeJ	.
.	.	.	.	.	.	.	.	8dd	.	4ff	.
.	.	.	.	.	.	.	.	8eeJ	.	.	.
=4	=4	=4	=4	=4	=4	=4	=4	=4	=4	=4	=4
0r	.	0r	.	2B-y]	.	4.b-y	men-	4ff	.	4dd	-bro
.	.	.	.	.	.	.	.	4dd	-bro	4.gg	la
.	.	.	.	.	.	8a	.	.	.	.	.
.	.	.	.	1c	la	1g	.	4.gg	la	.	.
.	.	.	.	.	.	.	.	.	.	8ffL	.
.	.	.	.	.	.	.	.	.	.	8ee	.
.	.	.	.	.	.	.	.	8ff	.	8ddJ	.
.	.	.	.	.	.	.	.	8eeL	.	8ccL	.
.	.	.	.	.	.	.	.	8dd	.	8dd	.
.	.	.	.	.	.	.	.	8cc	.	8ee	.
.	.	.	.	.	.	.	.	8ddJ	.	8ffJ	.
.	.	.	.	8cL	men-	2g	-te,	8eeL	.	4gg	.
.	.	.	.	8d	.	.	.	8ffJ	.	.	.
.	.	.	.	8e	.	.	.	4gg	.	8gL	men-
.	.	.	.	8fJ	.	.	.	.	.	8aJ	.
=5	=5	=5	=5	=5	=5	=5	=5	=5	=5	=5	=5
0r	.	0r	.	4.g	.	4r	.	8gL	men-	8b-yL	.
.	.	.	.	.	.	.	.	8a	.	8cc	.
.	.	.	.	.	.	4g	la	8b-y	.	8dd	.
.	.	.	.	16fL	.	.	.	8ccJ	.	8eeJ	.
.	.	.	.	16eJ	.	.	.	.	.	.	.
.	.	.	.	4.d	.	8aL	men-	8ddL	.	4.ff	.
.	.	.	.	.	.	8g	.	8eeJ	.	.	.
.	.	.	.	.	.	8f	.	2ff	.	.	.
.	.	.	.	16cL	.	8gJ	.	.	.	16eeL	.
.	.	.	.	16B-yJ	.	.	.	.	.	16ddJ	.
.	.	.	.	1A	.	1a	.	.	.	4cc#X	.
.	.	.	.	.	.	.	.	8eeL	.	2dd	.
.	.	.	.	.	.	.	.	8ddJ	.	.	.
.	.	.	.	.	.	.	.	2ee	.	.	.
.	.	.	.	.	.	.	.	.	.	4cc#X	.
=6	=6	=6	=6	=6	=6	=6	=6	=6	=6	=6	=6
0r	.	0r	.	2d	-te	2f	-te	2a	-te	2dd	-te
.	.	.	.	4.c	Rap-	4.g	Rap-	4.cc	Rap-	4.ee	Rap-
.	.	.	.	8A	-to	8a	-to	8cc	-to	8ff#X	-to
.	.	.	.	2G	fui,	2b-y	fui,	2dd	fui,	2gg	fui,
.	.	.	.	4r	.	4r	.	4r	.	4r	.
.	.	.	.	[4F	né	[4a	né	[4ff	né	[4cc	né
=7	=7	=7	=7	=7	=7	=7	=7	=7	=7	=7	=7
0r	.	0r	.	4F]	.	4a]	.	4ff]	.	4cc]	.
.	.	.	.	4F	so	4a	so	4ff	so	4cc	so
.	.	.	.	1B-y	co-	1b-y	co-	1ff	co-	1dd	co-
.	.	.	.	4G	-me in	4b-y	-me, in	4gg	-me, in	4dd	-me, in
.	.	.	.	4B-	chiu-	[4b-y	chiu-	[4ff	chiu-	[4dd	chiu-
=8	=8	=8	=8	=8	=8	=8	=8	=8	=8	=8	=8
0r	.	0r	.	4B-y	.	4b-y]	.	4ff]	.	4dd]	.
.	.	.	.	4c	-sa	4g	-sa	4ee	-sa	4cc	-sa
.	.	.	.	1d	chio-	1f#X	chio-	1dd	chio-	1a	chio-
.	.	.	.	2d	-stra,	2f#i	-stra,	2dd	-stra,	2a	-stra,
=9	=9	=9	=9	=9	=9	=9	=9	=9	=9	=9	=9
0r	.	0r	.	0r	.	0r	.	4g	E	4b-y	E
.	.	.	.	.	.	.	.	4a	due	4cc	due
.	.	.	.	.	.	.	.	4b-y	bel-	4dd	bel-
.	.	.	.	.	.	.	.	8b-y	-le	8dd	-le
.	.	.	.	.	.	.	.	8cc	d'A-	8ee	d'A-
.	.	.	.	.	.	.	.	4dd	-mor	4ff	-mor
.	.	.	.	.	.	.	.	4ff	guer-	4dd	guer-
.	.	.	.	.	.	.	.	4ee	-rier	4cc	-rier
.	.	.	.	.	.	.	.	4dd	in	4b-y	in
=10	=10	=10	=10	=10	=10	=10	=10	=10	=10	=10	=10
0r	.	0r	.	0r	.	1r	.	8ccL	gio-	8aL	gio-
.	.	.	.	.	.	.	.	8b-y	.	8g	.
.	.	.	.	.	.	.	.	8a	.	8f	.
.	.	.	.	.	.	.	.	8b-yJ	.	8gJ	.
.	.	.	.	.	.	.	.	8ccL	.	8aL	.
.	.	.	.	.	.	.	.	8dd	.	8b-y	.
.	.	.	.	.	.	.	.	8ee	.	8cc	.
.	.	.	.	.	.	.	.	8ffJ	.	8aJ	.
.	.	.	.	.	.	1g	Vi-	2gg	.	4bnX	.
.	.	.	.	.	.	.	.	.	.	2cc	.
.	.	.	.	.	.	.	.	2dd	-stra	.	.
.	.	.	.	.	.	.	.	.	.	4bnX	.
=11	=11	=11	=11	=11	=11	=11	=11	=11	=11	=11	=11
0r	.	0r	.	0r	.	2a	-di	4r	.	2cc	-stra
.	.	.	.	.	.	.	.	4.ff	Vi-	.	.
.	.	.	.	.	.	2b-y	con	.	.	4r	.
.	.	.	.	.	.	.	.	8ee	-di	.	.
.	.	.	.	.	.	.	.	4dd	con	4.ff	Vi-
.	.	.	.	.	.	1f	l'ar-	4cc	l'ar-	.	.
.	.	.	.	.	.	.	.	.	.	8ee	-di
.	.	.	.	.	.	.	.	2b-y	.	4dd	con
.	.	.	.	.	.	.	.	.	.	2cc	l'ar-
.	.	.	.	.	.	.	.	4a	.	.	.
=12	=12	=12	=12	=12	=12	=12	=12	=12	=12	=12	=12
0r	.	0r	.	4r	.	2B-y	-me	2b-y	-me	2dd	-me
.	.	.	.	4B-y	on-	.	.	.	.	.	.
.	.	.	.	2.B-y	-d'e-	4r	.	4r	.	4r	.
.	.	.	.	.	.	4b-y	on-	4ff	on-	4dd	on-
.	.	.	.	.	.	4b-y	-d'e-	4ff	-d'e-	4dd	-d'e-
.	.	.	.	4F	-gli è	4a	-gli è	4ff	-gli è	4cc	-gli è
.	.	.	.	[2F	si	[2a	si	[2ff	si	[2cc	si
=13	=13	=13	=13	=13	=13	=13	=13	=13	=13	=13	=13
0r	.	0r	.	2F]	.	2a]	.	2ff]	.	2cc]	.
.	.	.	.	2G	pos-	2g	pos-	4dd	pos-	2b-y	pos-
.	.	.	.	.	.	.	.	2ee	-sen-	.	.
.	.	.	.	1A	-sen-	4.f	-sen-	.	.	1a	-sen-
.	.	.	.	.	.	.	.	2dd	.	.	.
.	.	.	.	.	.	16eL	.	.	.	.	.
.	.	.	.	.	.	16dJ	.	.	.	.	.
.	.	.	.	.	.	2e	.	.	.	.	.
.	.	.	.	.	.	.	.	4cc#X	.	.	.
=14	=14	=14	=14	=14	=14	=14	=14	=14	=14	=14	=14
1r	.	1r	.	1d	-te;	1f	-te;	0dd	-te;	0a	-te;
1D	Vi-	2r	.	1f	Vi-	2r	.	.	.	.	.
.	.	[2d	Vi-	.	.	[2a	Vi-	.	.	.	.
=15	=15	=15	=15	=15	=15	=15	=15	=15	=15	=15	=15
1A	-di	2d]	.	1e	-di	2a]	.	0r	.	0r	.
.	.	2c#X	-di	.	.	2a	-di	.	.	.	.
4D	che in	4d	che in	4f	che in	4a	che in	.	.	.	.
2D	dol-	2d	dol-	2f	dol-	2a	dol-	.	.	.	.
4C	-ce ar-	4e	-ce ar-	4g	-ce ar-	4cc	-ce ar-	.	.	.	.
=16	=16	=16	=16	=16	=16	=16	=16	=16	=16	=16	=16
4F	-rin-	1f	-rin-	1a	-rin-	1cc	-rin-	2r	.	1r	.
4F	-go al-	.	.	.	.	.	.	.	.	.	.
4.A	-te-	.	.	.	.	.	.	4r	.	.	.
.	.	.	.	.	.	.	.	4cc	al-	.	.
8B-y	-ra-	.	.	.	.	.	.	.	.	.	.
1c	-men-	1e	-go	2g	-go	4c	-go al-	4.ee	-te-	4r	.
.	.	.	.	.	.	4.e	-te-	.	.	4cc	al-
.	.	.	.	.	.	.	.	8ff	-ra-	.	.
.	.	.	.	4r	.	.	.	4gg	-men-	4.ee	-te-
.	.	.	.	.	.	8f	-ra-	.	.	.	.
.	.	.	.	4c	al-	[4g	-men-	4gg	-te,	.	.
.	.	.	.	.	.	.	.	.	.	8ff	-ra-
=17	=17	=17	=17	=17	=17	=17	=17	=17	=17	=17	=17
1C	-te,	4r	.	4.e	-te-	8g]L	.	2r	.	4gg	-men-
.	.	.	.	.	.	8f	.	.	.	.	.
.	.	4c	al-	.	.	8e	.	.	.	4gg	-te,
.	.	.	.	8f	-ra-	8dJ	.	.	.	.	.
.	.	4.e	-te-	4g	-men-	2c	.	4r	.	2r	.
.	.	.	.	4g	-te,	.	.	4g	al-	.	.
.	.	8f	-ra-	.	.	.	.	.	.	.	.
4r	.	4g	-men-	4G	al-	1d	-te	4.b-y	-te-	2r	.
4G	al-	4g	-te	4.B-y	-te-	.	.	.	.	.	.
.	.	.	.	.	.	.	.	8cc	-ra-	.	.
4.B-y	-te-	2r	.	.	.	.	.	2dd	-men-	4r	.
.	.	.	.	8c	-ra-	.	.	.	.	.	.
.	.	.	.	4d	-men-	.	.	.	.	4dd	<al-
8c	-ra-	.	.	.	.	.	.	.	.	.	.
=18	=18	=18	=18	=18	=18	=18	=18	=18	=18	=18	=18
1d	-men-	2f	Fer	1D	-te	4r	.	2dd	-te	4.ff	-te-
.	.	.	.	.	.	4a	Fer	.	.	.	.
.	.	.	.	.	.	.	.	.	.	8gg	-ra-
.	.	4f	pria	.	.	4a	pria	2r	.	4aa	-men-
.	.	4f	di	.	.	4a	di	.	.	4aa	-te>
1D	-te	4f	lor	1r	.	4a	lor	4r	.	4r	.
.	.	4f	bel-	.	.	4a	bel-	4aa	Fer	4ff	Fer
.	.	8f	-tà	.	.	8a	-tà	4aa	pria	4ff	pria
.	.	8e	leg-	.	.	8g	leg-	.	.	.	.
.	.	8d	-gia-	.	.	8fL	-gia-	4aa	di	4ff	di
.	.	8c	-dra	.	.	8eJ	.	.	.	.	.
=19	=19	=19	=19	=19	=19	=19	=19	=19	=19	=19	=19
4r	.	1d	mo-	4r	.	4.f	.	4aa	lor	4ff	lor
4d	Fer	.	.	4f	Fer	.	.	4aa	bel-	4ff	bel-
.	.	.	.	.	.	8g	-dra	.	.	.	.
4d	pria	.	.	4f	pria	2a	mo-	8aa	-tà	8ff	-tà
.	.	.	.	.	.	.	.	8gg	leg-	8ee	leg-
4d	di	.	.	4f	di	.	.	8ff	-gia-	8dd	-gia-
.	.	.	.	.	.	.	.	8ee	-dra	8cc	-dra
4d	lor	2D	-stra,	4f	lor	2a	-stra,	1ff	mo-	1dd	mo-
4d	bel-	.	.	4f	bel-	.	.	.	.	.	.
8d	-tà	2r	.	8f	-tà	2r	.	.	.	.	.
8c	leg-	.	.	8e	leg-	.	.	.	.	.	.
8B-y	-gia-	.	.	8d	-gia-	.	.	.	.	.	.
8A	-dra	.	.	8c	-dra	.	.	.	.	.	.
=20	=20	=20	=20	=20	=20	=20	=20	=20	=20	=20	=20
1B-y	mo-	4r	.	1d	mo-	4r	.	1ff	-stra,	1dd	-stra,
.	.	4d	Fer	.	.	4f	<Fer	.	.	.	.
.	.	4d	pria	.	.	4f	pria	.	.	.	.
.	.	4d	di	.	.	4f	di	.	.	.	.
1BB-y	-stra,	4d	lor	1B-y	-stra,	4f	lor	4r	.	4r	.
.	.	4d	bel-	.	.	4f	bel-	4ff	<Fer	4dd	<Fer
.	.	8d	-tà	.	.	8f	-tà	4ff	pria	4dd	pria
.	.	8c	leg-	.	.	8e	leg-	.	.	.	.
.	.	8B-y	-gia-	.	.	8dL	-gia-	4ff	di	4dd	di
.	.	8A	-dra	.	.	8cJ	.	.	.	.	.
=21	=21	=21	=21	=21	=21	=21	=21	=21	=21	=21	=21
4r	.	1B-y	mo-	4r	.	4.d	.	4ff	lor	4dd	lor
4B-y	Fer	.	.	4d	<Fer	.	.	4ff	bel-	4dd	bel-
.	.	.	.	.	.	8e	-dra	.	.	.	.
4B-y	pria	.	.	4d	pria	2f	mo-	8ff	-tà	8dd	-tà
.	.	.	.	.	.	.	.	8ee	leg-	8cc	leg-
4B-y	di	.	.	4d	di	.	.	8dd	-gia-	8b-y	-gia-
.	.	.	.	.	.	.	.	8cc	-dra	8a	-dra
4B-y	lor	2d	-stra,	4d	lor	2f	-stra,>	2dd	mo-	2b-y	mo-
4B-y	bel-	.	.	4d	bel-	.	.	.	.	.	.
8B-y	-tà	4r	.	8d	-tà	4r	.	2dd	-stra,>	2b-y	-stra,>
8A	leg-	.	.	8c	leg-	.	.	.	.	.	.
8G	-gia-	4d	Fer	8B-y	-gia-	4b-y	Fer	.	.	.	.
8F	-dra	.	.	8A	-dra	.	.	.	.	.	.
=22	=22	=22	=22	=22	=22	=22	=22	=22	=22	=22	=22
2G	mo-	4d	pria	2B-y	mo-	4b-y	pria	4r	.	4r	.
.	.	4d	di	.	.	4b-y	di	4dd	Fer	4g	Fer
4G	-stra,	4d	lor	4B-y	-stra,>	4b-y	lor	4dd	pria	4g	pria
4G	Fer	4d	bel-	4B-y	Fer	4b-y	bel-	4dd	di	4g	di
4G	pria	8d	-tà	4B-y	pria	8b-y	-tà	4dd	lor	4g	lor
.	.	8c	leg-	.	.	8a	leg-	.	.	.	.
4G	di	8B-y	-gia-	4B-y	di	8g	-gia-	4dd	bel-	4b-y	bel-
.	.	8c	-dra	.	.	8f	-dra	.	.	.	.
4G	lor	2d	mo-	4B-y	lor	2g	mo-	8dd	-tà	8b-y	-tà
.	.	.	.	.	.	.	.	8cc	leg-	8a	leg-
4G	bel-	.	.	4B-y	bel-	.	.	8b-y	-gia-	8b-y	-gia-
.	.	.	.	.	.	.	.	8a	-dra	8cc	-dra
=23	=23	=23	=23	=23	=23	=23	=23	=23	=23	=23	=23
8G	-tà	4G	-stra,	8B-y	-tà	4g	-stra,	2b-y	mo-	4dd	mo-
8F	leg-	.	.	8A	leg-	.	.	.	.	.	.
8E-X	-gia-	4B-y	Fer	8G	-gia-	4g	<Fer	.	.	4ee-X	-stra,
8D	-dra	.	.	8F	-dra	.	.	.	.	.	.
2E-X	mo-	4B-y	pria	2G	mo-	4g	pria	4b-y	-stra,	4r	.
.	.	4B-y	di	.	.	4g	di	4b-y	Fer	4gg	<Fer
4E-i	-stra,	4B-y	lor	4G	-stra,	4g	lor	4b-y	pria	4gg	pria
4E-i	Fer	4B-y	bel-	4G	Fer	4g	bel-	4b-y	di	4gg	di
4E-i	pria	8B-y	-tà	4G	pria	8g	-tà	4b-y	lor	4gg	lor
.	.	8A	leg-	.	.	8f	leg-	.	.	.	.
4E-i	di	8G	-gia-	4g	di	8e-X	-gia-	4b-y	bel-	4gg	bel-
.	.	8A	-dra	.	.	8d	-dra	.	.	.	.
=24	=24	=24	=24	=24	=24	=24	=24	=24	=24	=24	=24
4E-i	lor	2B-y	mo-	4g	lor	2e-X	mo-	8b-y	-tà	8gg	-tà
.	.	.	.	.	.	.	.	8a	leg-	8ff	leg-
4E-i	bel-	.	.	4g	bel-	.	.	8g	-gia-	8ee-X	-gia-
.	.	.	.	.	.	.	.	8f	-dra	8dd	-dra
8E-i	-tà	4B-y	-stra,	8g	-tà	4e-i	-stra,>	2g	mo-	2ee-X	mo-
8D	leg-	.	.	8f	leg-	.	.	.	.	.	.
8C	-gia-	4c	di	8e-X	-gia-	4e-i	di	.	.	.	.
8BB-y	-dra	.	.	8d	-dra	.	.	.	.	.	.
1C	mo-	4c	lor	1c	mo-	4e-i	lor	4g	-stra,	4ee-i	-stra,>
.	.	4G	bel-	.	.	4e-i	bel-	4gg	di	4ee-i	di
.	.	8c	-tà	.	.	8e-i	-tà	4gg	lor	4ee-i	lor
.	.	8d	leg-	.	.	8d	leg-	.	.	.	.
.	.	8e-X	-gia-	.	.	8c	-gia-	4gg	bel-	4ee-i	bel-
.	.	8f	-dra	.	.	8d	-dra	.	.	.	.
=25	=25	=25	=25	=25	=25	=25	=25	=25	=25	=25	=25
1C	-stra,	1g	mo-	1c	-stra,	2e-X	mo-	8gg	-tà	8ee-i	-tà
.	.	.	.	.	.	.	.	8ff	leg-	8dd	leg-
.	.	.	.	.	.	.	.	8ee-X	-gia-	8cc	-gia-
.	.	.	.	.	.	.	.	8dd	-dra	8b-y	-dra
.	.	.	.	.	.	2e-i	-stra,	2ee-X	mo-	1cc	mo-
1G	Poi	1g	-stra,	1d	Poi	1r	.	1dd	-stra,	.	.
.	.	.	.	.	.	.	.	.	.	2bnX	-stra,
=26	=26	=26	=26	=26	=26	=26	=26	=26	=26	=26	=26
0r	.	1.c	Poi	0r	.	1.g	Poi	2r	.	2r	.
.	.	.	.	.	.	.	.	1ee	Poi	1cc	Poi
.	.	2r	.	.	.	2r	.	4r	.	2f	mo-
.	.	.	.	.	.	.	.	[4ff	mo-	.	.
=27	=27	=27	=27	=27	=27	=27	=27	=27	=27	=27	=27
0r	.	0r	.	0r	.	0r	.	4ff]	.	4.b-y	-ven-
.	.	.	.	.	.	.	.	4.dd	-ven-	.	.
.	.	.	.	.	.	.	.	.	.	8b-y	-do-
.	.	.	.	.	.	.	.	.	.	2a	-si in-
.	.	.	.	.	.	.	.	8cc	-do-	.	.
.	.	.	.	.	.	.	.	2cc	-si in-	.	.
.	.	.	.	.	.	.	.	.	.	2dd	-con-
.	.	.	.	.	.	.	.	4bnX	-con-	.	.
.	.	.	.	.	.	.	.	2cc	-tra	2cc	-tra
=28	=28	=28	=28	=28	=28	=28	=28	=28	=28	=28	=28
6.c	o-	6.g	o-	6.e	o-	6.cc	o-	0r	.	0r	.
12c	-ve	12g	-ve	12e	-ve	12cc	-ve	.	.	.	.
6G	s'in-	6g	s'in-	6d	s'in-	6b-y	s'in-	.	.	.	.
6.A	-no-	6.e	-no-	6.c#X	-no-	6.a	-no-	.	.	.	.
12A	-stra	12e	-stra	12c#i	-stra	12a	-stra	.	.	.	.
6B-y	la	6d	la	6d	la	6g	la	.	.	.	.
2A	boc-	2e	boc-	2c#X	boc-	2a	boc-	.	.	.	.
2D	-ca	2f	-ca	2d	-ca	2a	-ca	.	.	.	.
=29	=29	=29	=29	=29	=29	=29	=29	=29	=29	=29	=29
4.B-y	si	2r	.	4r	.	4r	.	1r	.	2r	.
.	.	.	.	4.B-y	si	4.d	si	.	.	.	.
8c	fe-	.	.	.	.	.	.	.	.	.	.
2d	-rir,	4.B-y	si	.	.	.	.	.	.	4r	.
.	.	.	.	8c	fe-	8e	fe-	.	.	.	.
.	.	.	.	2d	-rir,	2f	-rir,	.	.	4.dd	si
.	.	8c	fe-	.	.	.	.	.	.	.	.
4.B-y	si	2d	-rir,	.	.	.	.	4.dd	si	.	.
.	.	.	.	.	.	.	.	.	.	8ee	fe-
.	.	.	.	4.B-y	si	4.d	si	.	.	2ff	-rir,
8c	fe-	.	.	.	.	.	.	8ee	fe-	.	.
2d	-rir,	4.B-y	si	.	.	.	.	2ff	-rir,	.	.
.	.	.	.	8c	fe-	8e	fe-	.	.	.	.
.	.	.	.	[4d	-rir,	4f	-rir,	.	.	[4dd	si
.	.	8c	fe-	.	.	.	.	.	.	.	.
=30	=30	=30	=30	=30	=30	=30	=30	=30	=30	=30	=30
4.G	si	2d	-rir,	4d]	.	4r	.	4.dd	si	8dd]	.
.	.	.	.	.	.	.	.	.	.	8ee	fe-
.	.	.	.	4.G	si	4.B-y	si	.	.	2ff	-rir,
8A	fe-	.	.	.	.	.	.	8ee	fe-	.	.
2B-y	-rir,	2G	di	.	.	.	.	2ff	-rir,	.	.
.	.	.	.	8A	fe-	8c	fe-	.	.	.	.
.	.	.	.	4B-y	-rir,	4d	-rir,	.	.	4.b-y	si
1r	.	2B-y	ba-	1r	.	4r	.	4.b-y	si	.	.
.	.	.	.	.	.	.	.	.	.	8cc	fe-
.	.	.	.	.	.	4f	di	.	.	2dd	-rir
.	.	.	.	.	.	.	.	8cc	fe-	.	.
.	.	2F	-cio ar-	.	.	4.f	ba-	4dd	-rir	.	.
.	.	.	.	.	.	.	.	4b-y	di	4dd	di
.	.	.	.	.	.	8e	-cio ar-	.	.	.	.
=31	=31	=31	=31	=31	=31	=31	=31	=31	=31	=31	=31
0r	.	1G	-den-	1r	.	1d	-den-	2b-y	ba-	2dd	ba-
.	.	.	.	.	.	.	.	2a	-cio ar-	2cc	-cio ar-
.	.	1D	-te,	2r	.	[1d	-te,	4.dd	-den-	8b-yL	-den-
.	.	.	.	.	.	.	.	.	.	8ccJ	.
.	.	.	.	.	.	.	.	.	.	4dd	.
.	.	.	.	.	.	.	.	8cc	.	.	.
.	.	.	.	4r	.	.	.	8b-yL	.	8gL	.
.	.	.	.	.	.	.	.	8aJ	.	8aJ	.
.	.	.	.	[4d	si	.	.	4g	.	4b-y	.
=32	=32	=32	=32	=32	=32	=32	=32	=32	=32	=32	=32
4.B-y	si	2r	.	8d]	.	2d]	.	1f#X	-te,	1a	-te,
.	.	.	.	8c	fe-	.	.	.	.	.	.
.	.	.	.	2B-y	-rir,	.	.	.	.	.	.
8c	fe-	.	.	.	.	.	.	.	.	.	.
2d	-rir,	4.G	si	.	.	2r	.	.	.	.	.
.	.	.	.	4.d	si	.	.	.	.	.	.
.	.	8A	fe-	.	.	.	.	.	.	.	.
4.B-y	si	2B-y	-rir,	.	.	4.d	si	4r	.	2r	.
.	.	.	.	8e	fe-	.	.	.	.	.	.
.	.	.	.	2f	-rir,	.	.	4.dd	si	.	.
8c	fe-	.	.	.	.	8e	fe-	.	.	.	.
2d	-rir,	4.B-y	si	.	.	2f	-rir,	.	.	4.dd	si
.	.	.	.	.	.	.	.	8ee	fe-	.	.
.	.	.	.	[4B-y	si	.	.	[4ff	-rir,	.	.
.	.	8c	fe-	.	.	.	.	.	.	8ee	fe-
=33	=33	=33	=33	=33	=33	=33	=33	=33	=33	=33	=33
4.G	si	1d	-rir,	8B-y]	.	2r	.	4ff]	.	2ff	-rir,
.	.	.	.	8c	fe-	.	.	.	.	.	.
.	.	.	.	2d	-rir	.	.	4.dd	si	.	.
8A	fe-	.	.	.	.	.	.	.	.	.	.
2B-y	-rir,	.	.	.	.	4.f	si	.	.	4.dd	si
.	.	.	.	.	.	.	.	8ee	fe-	.	.
.	.	.	.	4f	di	.	.	4ff	-rir,	.	.
.	.	.	.	.	.	8e	fe-	.	.	8cc	fe-
1BB-y	di	1B-y	di	[1f	ba-	2d	-rir,	4r	.	2b-y	-rir,
.	.	.	.	.	.	.	.	4dd	di	.	.
.	.	.	.	.	.	2d	di	8b-yL	ba-	4dd	di
.	.	.	.	.	.	.	.	8cc	.	.	.
.	.	.	.	.	.	.	.	8dd	.	8b-yL	ba-
.	.	.	.	.	.	.	.	8eeJ	.	8ccJ	.
=34	=34	=34	=34	=34	=34	=34	=34	=34	=34	=34	=34
1F	ba-	1A	ba-	1f]	.	1c	ba-	2ff	.	8ddL	.
.	.	.	.	.	.	.	.	.	.	8eeJ	.
.	.	.	.	.	.	.	.	.	.	2ff	.
.	.	.	.	.	.	.	.	4.f	-cio ar-	.	.
.	.	.	.	.	.	.	.	.	.	4.f	-cio ar-
.	.	.	.	.	.	.	.	8g	.	.	.
1C	-cio ar-	2G	-cio ar-	1e	-cio ar-	1c	-cio	8aL	.	.	.
.	.	.	.	.	.	.	.	8b-yJ	.	8gL	.
.	.	.	.	.	.	.	.	4cc	.	8a	.
.	.	.	.	.	.	.	.	.	.	8b-yJ	.
.	.	4.c	-den-	.	.	.	.	8aL	-den-	4cc	.
.	.	.	.	.	.	.	.	8b-y	.	.	.
.	.	.	.	.	.	.	.	8cc	.	8aL	-den-
.	.	8B-y	.	.	.	.	.	8ddJ	.	8b-yJ	.
=35	=35	=35	=35	=35	=35	=35	=35	=35	=35	=35	=35
0D	-den-	0A	.	0d	-den-	2r	.	8eeL	.	8ccL	.
.	.	.	.	.	.	.	.	8ffJ	.	8dd	.
.	.	.	.	.	.	.	.	4gg	.	8ee	.
.	.	.	.	.	.	.	.	.	.	8ffJ	.
.	.	.	.	.	.	2f	ar-	4ee	-te, ar-	4gg	.
.	.	.	.	.	.	.	.	4.aa	.	4ee	-te, ar-
.	.	.	.	.	.	1a	-den-	.	.	4.aa	.
.	.	.	.	.	.	.	.	8ggL	.	.	.
.	.	.	.	.	.	.	.	8ff	.	.	.
.	.	.	.	.	.	.	.	8eeJ	.	8gg	.
.	.	.	.	.	.	.	.	4dd	.	8ffL	.
.	.	.	.	.	.	.	.	.	.	8eeJ	.
.	.	.	.	.	.	.	.	8aaL	-den-	4dd	.
.	.	.	.	.	.	.	.	8ggJ	.	.	.
=36	=36	=36	=36	=36	=36	=36	=36	=36	=36	=36	=36
[0AA	-te.	[0A	-te.	[0e	-te.	[0a	-te.	8ffL	.	8aaL	-den-
.	.	.	.	.	.	.	.	8ee	.	8gg	.
.	.	.	.	.	.	.	.	8dd	.	8ff	.
.	.	.	.	.	.	.	.	8eeJ	.	8eeJ	.
.	.	.	.	.	.	.	.	2ff	.	1dd	.
.	.	.	.	.	.	.	.	[1ee	-te.	.	.
.	.	.	.	.	.	.	.	.	.	4cc#X	.
.	.	.	.	.	.	.	.	.	.	4bnX	.
=37	=37	=37	=37	=37	=37	=37	=37	=37	=37	=37	=37
0AAl]	.	0Al]	.	0el]	.	0al]	.	0eel]	.	0cc#Xl	-te.
=38||	=38||	=38||	=38||	=38||	=38||	=38||	=38||	=38||	=38||	=38||	=38||
!!LO:TX:a:t=Seconda parte.
2r	.	2r	.	2.e	Suo-	2r	.	2r	.	2r	.
2A	Suo-	2e	Suo-	.	.	2a	Suo-	2cc#X	Suo-	2ee	Suo-
.	.	.	.	4.A	-nar	.	.	.	.	.	.
4.D	-nar	4.d	-nar	.	.	4.a	-nar	4.dd	-nar	4.ff#X	-nar
.	.	.	.	8A	le	.	.	.	.	.	.
.	.	.	.	4.d	la-	.	.	.	.	.	.
8D	le	8A	le	.	.	8a	le	8dd	le	8ff#i	le
4.G	la-	4.BnX	la-	.	.	4.g	la-	4.dd	la-	4.gg	la-
.	.	.	.	8d	-bra e	.	.	.	.	.	.
.	.	.	.	[4G	vi	.	.	.	.	.	.
8G	-bra e	8Bni	-bra e	.	.	8g	-bra e	8dd	-bra e	8gg	-bra e
=39	=39	=39	=39	=39	=39	=39	=39	=39	=39	=39	=39
4.C	vi	4.c	vi	8G]	.	4.g	vi	4.ee	vi	4.gg	vi
.	.	.	.	8G	re-	.	.	.	.	.	.
.	.	.	.	4.c	-sta-	.	.	.	.	.	.
8C	re-	8c	re-	.	.	8g	re-	8ee	re-	8gg	re-
4.F	-sta-	4.A	-sta-	.	.	4.a	-sta-	4.ff	-sta-	4.cc	-sta-
.	.	.	.	8c	-ro i	.	.	.	.	.	.
.	.	.	.	4.F	se-	.	.	.	.	.	.
8F	-ro i	8A	-ro i	.	.	8a	-ro i	8ff	-ro i	8cc	-ro i
4.BB-y	se-	4.B-y	se-	.	.	4.f	se-	4.ff	se-	4.dd	se-
.	.	.	.	8F	-gni	.	.	.	.	.	.
.	.	.	.	2B-y	De'	.	.	.	.	.	.
8BB-y	-gni	8B-y	-gni	.	.	8f	-gni	8ff	-gni	8dd	-gni
2E-X	De'	2G	De'	.	.	2g	De'	2b-y	De'	2ee-X	De'
.	.	.	.	[4G	col-	.	.	.	.	.	.
=40	=40	=40	=40	=40	=40	=40	=40	=40	=40	=40	=40
4.C	col-	4.c	col-	8G]	.	4.g	col-	4.cc	col-	4.ee-X	col-
.	.	.	.	8G	-pi im-	.	.	.	.	.	.
.	.	.	.	4.g	-pre-	.	.	.	.	.	.
8C	-pi im-	8c	-pi im-	.	.	8g	-pi im-	8ee-X	-pi im-	8cc	-pi im-
2G	-pre-	2d	-pre-	.	.	2g	-pre-	2dd	-pre-	2bnX	-pre-
.	.	.	.	16fL	.	.	.	.	.	.	.
.	.	.	.	16eJ	.	.	.	.	.	.	.
.	.	.	.	4d	.	.	.	.	.	.	.
2C	-si.	1c	-si.	1g	-si.	1g	-si.	1ee-i	-si.	1cc	-si.
4r	.	.	.	.	.	.	.	.	.	.	.
4C	A-	.	.	.	.	.	.	.	.	.	.
=41	=41	=41	=41	=41	=41	=41	=41	=41	=41	=41	=41
1F	-mor,	2r	.	0r	.	2r	.	2r	.	2r	.
.	.	2F	A-	.	.	2a	A-	2ff	A-	2cc	A-
1r	.	1B-y	-mor,	.	.	1b-y	-mor,	1ff	-mor,	1dd	-mor,
=42	=42	=42	=42	=42	=42	=42	=42	=42	=42	=42	=42
0r	.	2r	.	0r	.	2r	.	2r	.	2r	.
.	.	1e-X	deh,	.	.	1g	deh,	1b-y	deh,	1ee-X	deh,
.	.	4.B-y	per-	.	.	4.f	per-	4.b-y	per-	4.dd	per-
.	.	8c	-ché a	.	.	8e	-ché a	8g	-ché a	8cc	-ché a
=43	=43	=43	=43	=43	=43	=43	=43	=43	=43	=43	=43
0r	.	4G	vo-	0r	.	4d	vo-	4g	vo-	4b-y	vo-
.	.	8G	-to	.	.	8d	-to	8g	-to	8b-y	-to
.	.	8D	Tan-	.	.	8d	Tan-	8f#X	Tan-	8a	Tan-
.	.	4G	-t'ar-	.	.	4d	-t'ar-	4g	-t'ar-	4b-y	-t'ar-
.	.	4F	-me e	.	.	4f	-me e	4a	-me e	4cc	-me e
.	.	4.B-y	tai	.	.	4.f	tai	4.b-y	tai	4.dd	tai
.	.	8B-y	per-	.	.	8f	per-	8b-y	per-	8dd	per-
.	.	4B-y	-cos-	.	.	4f	-cos-	4b-y	-cos-	4dd	-cos-
.	.	4G	-se u-	.	.	4g	-se u-	4b-y	-se u-	4dd	-se u-
=44	=44	=44	=44	=44	=44	=44	=44	=44	=44	=44	=44
0r	.	4d	-sar	0r	.	4f	-sar	2.a	-sar	2dd	-sar
.	.	4e	da	.	.	4g	da	.	.	.	.
.	.	4f	scher-	.	.	4a	scher-	.	.	1cc	da
.	.	8eL	.	.	.	8gL	.	4bnX	da	.	.
.	.	8dJ	.	.	.	8fJ	.	.	.	.	.
.	.	1c	.	.	.	4e	.	4cc	scher-	.	.
.	.	.	.	.	.	2f	.	8b-iL	.	.	.
.	.	.	.	.	.	.	.	8aJ	.	.	.
.	.	.	.	.	.	.	.	2g	.	2cc	scher-
.	.	.	.	.	.	4e	.	.	.	.	.
=45	=45	=45	=45	=45	=45	=45	=45	=45	=45	=45	=45
1r	.	1F	-zo?	1r	.	1f	-zo?	1a	-zo?	1cc	-zo?
!!LO:TX:a:cj:t=[whole] &rarr; [whole-dot]
=46	=46	=46	=46	=46	=46	=46	=46	=46	=46	=46	=46
*M3/2	*	*M3/2	*	*M3/2	*	*M3/2	*	*M3/2	*	*M3/2	*
*omet(3/2)	*	*omet(3/2)	*	*omet(3/2)	*	*omet(3/2)	*	*omet(3/2)	*	*omet(3/2)	*
2.BB-y	Pro-	2.B-y	Pro-	2.d	Pro-	2.f	Pro-	2.b-y	Pro-	2.dd	Pro-
4BB-y	-vin-	4B-y	-vin-	4d	-vin-	4f	-vin-	4b-y	-vin-	4dd	-vin-
2BB-y	-si in	2B-y	-si in	2d	-si in	2b-y	-si in	2dd	-si in	2ff	-si in
=47	=47	=47	=47	=47	=47	=47	=47	=47	=47	=47	=47
1F	ve-	1c	ve-	1f	ve-	1a	ve-	1cc	ve-	1ff	ve-
2G	-ra	2G	-ra	2B-y	-ra	2g	-ra	2b-y	-ra	2dd	-ra
=48	=48	=48	=48	=48	=48	=48	=48	=48	=48	=48	=48
1D	pu-	1A	pu-	1d	pu-	1f#X	pu-	1a	pu-	1dd	pu-
2D	-gna,	2A	-gna,	2d	-gna,	2f#i	-gna,	2a	-gna,	2dd	-gna,
=49	=49	=49	=49	=49	=49	=49	=49	=49	=49	=49	=49
2.BB-y	Pro-	2.d	Pro-	2.f	Pro-	2r	.	2.ff	Pro-	2.dd	Pro-
.	.	.	.	.	.	2.b-y	Pro-	.	.	.	.
4BB-y	-vin-	4d	-vin-	4f	-vin-	.	.	4ff	-vin-	4dd	-vin-
2BB-y	-si in	2d	-si in	2B-y	-si in	.	.	2ff	-si in	2dd	-si in
.	.	.	.	.	.	4b-y	-vin-	.	.	.	.
=50	=50	=50	=50	=50	=50	=50	=50	=50	=50	=50	=50
1F	ve-	1f	ve-	1c	ve-	2a	-si in	1ff	ve-	1cc	ve-
.	.	.	.	.	.	2a	ve-	.	.	.	.
2G	-ra	2B-y	-ra	2G	-ra	2g	-ra	2dd	-ra	2b-y	-ra
!!LO:TX:a:t=[whole-dot] &rarr; [whole]
=51	=51	=51	=51	=51	=51	=51	=51	=51	=51	=51	=51
*M4/2	*	*M4/2	*	*M4/2	*	*M4/2	*	*M4/2	*	*M4/2	*
*omet(C)	*	*omet(C)	*	*omet(C)	*	*omet(C)	*	*omet(C)	*	*omet(C)	*
2D	pu-	2d	pu-	2A	pu-	2f#X	pu-	2dd	pu-	2a	pu-
2D	-gna, e	2A	-gna,	2d	-gna, e	2f#i	-gna, e	2dd	-gna,	2a	-gna, e
4.G	non	1r	.	4.d	non	4.g	non	1r	.	4.b-y	non
8B-y	si	.	.	8d	si	8d	si	.	.	8g	si
4A	sde-	.	.	4c#X	sde-	4e	sde-	.	.	4a	sde-
4A	-gni	.	.	4c#i	-gni,	4e	-gni,	.	.	4a	-gni,
=52	=52	=52	=52	=52	=52	=52	=52	=52	=52	=52	=52
1r	.	4r	.	1r	.	1r	.	4.dd	Scon-	1r	.
.	.	4.d	Scon-	.	.	.	.	.	.	.	.
.	.	.	.	.	.	.	.	8cc	-tro	.	.
.	.	.	.	.	.	.	.	2b-y	d'a-	.	.
.	.	8d	-tro	.	.	.	.	.	.	.	.
.	.	4e	d'a-	.	.	.	.	.	.	.	.
4r	.	2f#X	-man-	4r	.	4r	.	2a	-man-	4r	.
4D	e	.	.	4d	e	4d	e	.	.	4a	e
4.G	non	2g	-te,	4.B-y	non	[4.d	non	2g	-te,	4.b-y	non
8B-y	si	.	.	8d	si	8d]	si	.	.	8g	si
=53	=53	=53	=53	=53	=53	=53	=53	=53	=53	=53	=53
4A	sde-	1r	.	4c#X	sde-	4e	sde-	1r	.	4a	sde-
4A	-gni	.	.	4c#i	-gni	4e	-gni	.	.	4a	-gni
4r	.	.	.	4r	.	2r	.	.	.	4.dd	Scon-
4.B-y	Scon-	.	.	4.d	Scon-	.	.	.	.	.	.
.	.	.	.	.	.	.	.	.	.	8cc	-tro
.	.	2r	.	.	.	1r	.	2r	.	2b-y	d'a-
8B-y	-tro	.	.	8d	-tro	.	.	.	.	.	.
4c	d'a-	.	.	4e	d'a-	.	.	.	.	.	.
2d	-man-	4r	.	2f#X	-man-	.	.	4.dd	Scon-	2a	-man-
.	.	[4d	Scon-	.	.	.	.	.	.	.	.
.	.	.	.	.	.	.	.	8cc	-tro	.	.
=54	=54	=54	=54	=54	=54	=54	=54	=54	=54	=54	=54
2G	-te,	8d]	.	2g	-te,	1r	.	2b-y	d'a-	2g	-te,
.	.	8d	-tro	.	.	.	.	.	.	.	.
.	.	4e	d'a-	.	.	.	.	.	.	.	.
2r	.	2f#X	-man-	2r	.	.	.	2a	-man-	2r	.
1r	.	2g	-te,	1r	.	4r	.	2g	-te,	4.gg	Scon-
.	.	.	.	.	.	4.g	Scon-	.	.	.	.
.	.	.	.	.	.	.	.	.	.	8ff	-tro
.	.	2r	.	.	.	.	.	2r	.	2ee	d'a-
.	.	.	.	.	.	8g	-tro	.	.	.	.
.	.	.	.	.	.	4a	d'a-	.	.	.	.
=55	=55	=55	=55	=55	=55	=55	=55	=55	=55	=55	=55
0r	.	4r	.	4r	.	2bnX	-man-	4r	.	2dd	-man-
.	.	4g	e	4G	e	.	.	4dd	e	.	.
.	.	4.g	non	4.c	non	2cc	-te,	4.ee-X	non	2cc	-te,
.	.	8g	si	8e-X	si	.	.	8cc	si	.	.
.	.	4f#X	sde-	4d	sde-	1r	.	4dd	sde-	2r	.
.	.	4f#i	-gni,	4d	-gni,	.	.	4dd	-gni,	.	.
.	.	2r	.	4.c	Scon-	.	.	4.gg	Scon-	4r	.
.	.	.	.	.	.	.	.	.	.	[4g	Scon-
.	.	.	.	8d	-tro	.	.	8ff	-tro	.	.
=56	=56	=56	=56	=56	=56	=56	=56	=56	=56	=56	=56
1r	.	1r	.	2e	d'a-	1r	.	2ee	d'a-	8g]	.
.	.	.	.	.	.	.	.	.	.	8g	-tro
.	.	.	.	.	.	.	.	.	.	4a	d'a-
.	.	.	.	2g	-man-	.	.	2dd	-man-	2bnX	-man-
2r	.	2r	.	1c	-te,	2r	.	1cc	-te,	2cc	-te.
2C	A-	2c	A-	.	.	2g	A-	.	.	2ee	A-
=57	=57	=57	=57	=57	=57	=57	=57	=57	=57	=57	=57
0F	-mor,	0c	-mor,	2r	.	0a	-mor,	2r	.	1ff	-mor,
.	.	.	.	2A	A-	.	.	2cc	A-	.	.
.	.	.	.	1f	-mor,	.	.	1cc	-mor,	2r	.
.	.	.	.	.	.	.	.	.	.	2cc	A-
=58	=58	=58	=58	=58	=58	=58	=58	=58	=58	=58	=58
2r	.	2r	.	2r	.	2r	.	0r	.	1dd	-mor,
2BB-y	A-	2B-y	A-	2d	A-	2f	A-	.	.	.	.
2.E-X	-mor,	2.B-y	-mor,	2.e-X	-mor,	2.g	-mor,	.	.	1r	.
4E-i	me,	4B-y	me,	4e-i	me,	4g	me,	.	.	.	.
=59	=59	=59	=59	=59	=59	=59	=59	=59	=59	=59	=59
2E-i	tuo	2B-y	tuo	2e-i	tuo	2g	tuo	0r	.	0r	.
2C	de-	2c	de-	2e-i	de-	2g	de-	.	.	.	.
1D	-vo-	1A	-vo-	1d	-vo-	1f#X	-vo-	.	.	.	.
=60	=60	=60	=60	=60	=60	=60	=60	=60	=60	=60	=60
4D	-to,	4A	-to,	4d	-to,	4f#i	-to,	1r	.	1r	.
4D	Op-	4A	Op-	4d	Op-	4f#i	Op-	.	.	.	.
4G	-po-	4B-y	-po-	4.d	-po-	4g	-po-	.	.	.	.
4G	-ni a	4B-y	-ni a	.	.	4g	-ni a	.	.	.	.
.	.	.	.	8e	-ni a	.	.	.	.	.	.
2F	l'u-	2c	l'u-	2f	l'u-	2a	l'u-	2r	.	2r	.
2F	-na,	2c	-na,	2f	-na,	2a	-na,	4r	.	4r	.
.	.	.	.	.	.	.	.	4a	o	4cc	o
=61	=61	=61	=61	=61	=61	=61	=61	=61	=61	=61	=61
0r	.	1r	.	0r	.	0r	.	4b-y	fra	4dd	fra
.	.	.	.	.	.	.	.	4cc	le	4ee	le
.	.	.	.	.	.	.	.	8ddL	due	8ffL	due
.	.	.	.	.	.	.	.	8cc	.	8ee	.
.	.	.	.	.	.	.	.	8b-y	.	8dd	.
.	.	.	.	.	.	.	.	8aJ	.	8ccJ	.
.	.	1G	fa	.	.	.	.	4g	.	4b-y	.
.	.	.	.	.	.	.	.	4b-y	fa	4dd	fa
.	.	.	.	.	.	.	.	4.b-y	ter-	4.dd	ter-
.	.	.	.	.	.	.	.	16aL	.	16ccL	.
.	.	.	.	.	.	.	.	16gJ	.	16b-yJ	.
=62	=62	=62	=62	=62	=62	=62	=62	=62	=62	=62	=62
0r	.	1d	ter-	0r	.	1r	.	4f#X	.	4a	.
.	.	.	.	.	.	.	.	2g	.	4g	.
.	.	.	.	.	.	.	.	.	.	2a	.
.	.	.	.	.	.	.	.	4f#X	.	.	.
.	.	2G	-zo,	.	.	2r	.	2g	-zo,	2g	-zo,
.	.	2G	A-	.	.	2g	A-	2dd	A-	2bnX	A-
=63	=63	=63	=63	=63	=63	=63	=63	=63	=63	=63	=63
2r	.	1c	-mor,	2r	.	1g	-mor,	1ee	-mor,	1cc	-mor,
2C	A-	.	.	2c	A-	.	.	.	.	.	.
1F	-mor,	2r	.	1c	-mor,	2r	.	2r	.	2r	.
.	.	2F	A-	.	.	2f	A-	2a	A-	2cc	A-
=64	=64	=64	=64	=64	=64	=64	=64	=64	=64	=64	=64
0r	.	2.B-y	-mor,	0r	.	2.f	-mor,	2.b-y	-mor,	2.dd	-mor,
.	.	4B-y	me,	.	.	4f	me,	4b-y	me,	4dd	me,
.	.	2B-y	tuo	.	.	2f	tuo	2b-y	tuo	2dd	tuo
.	.	2G	de-	.	.	2g	de-	2b-y	de-	2dd	de-
=65	=65	=65	=65	=65	=65	=65	=65	=65	=65	=65	=65
0r	.	1A	-vo-	0r	.	1e	-vo-	1a	-vo-	1cc#X	-vo-
.	.	4A	-to,	.	.	4e	-to,	4a	-to,	4cc#i	-to,
.	.	4A	Op-	.	.	4e	Op-	4a	Op-	4cc#i	Op-
.	.	4d	-po-	.	.	4f	-po-	4.a	-po-	4dd	-po-
.	.	4d	-ni a	.	.	4f	-ni a	.	.	4dd	-ni a
.	.	.	.	.	.	.	.	8b-y	-ni a	.	.
=66	=66	=66	=66	=66	=66	=66	=66	=66	=66	=66	=66
0r	.	2c	l'u-	2r	.	2g	l'u-	2cc	l'u-	2ee	l'u-
.	.	2c	-na,	4r	.	2g	-na, o	2cc	-na,	2ee	-na,
.	.	.	.	4e	o	.	.	.	.	.	.
.	.	1r	.	4f	fra	4a	fra	1r	.	1r	.
.	.	.	.	4g	le	4b-y	le	.	.	.	.
.	.	.	.	8aL	due	8ccL	due	.	.	.	.
.	.	.	.	8g	.	8b-y	.	.	.	.	.
.	.	.	.	8f	.	8a	.	.	.	.	.
.	.	.	.	8eJ	.	8gJ	.	.	.	.	.
=67	=67	=67	=67	=67	=67	=67	=67	=67	=67	=67	=67
1D	fa	0r	.	4d	.	4f	.	1r	.	1r	.
.	.	.	.	4f	fa	4a	fa	.	.	.	.
.	.	.	.	4.f	ter-	4.a	ter-	.	.	.	.
.	.	.	.	16eL	.	16gL	.	.	.	.	.
.	.	.	.	16dJ	.	16fJ	.	.	.	.	.
1A	ter-	.	.	4c#X	.	4e	.	2r	.	2r	.
.	.	.	.	2d	.	4d	.	.	.	.	.
.	.	.	.	.	.	2e	.	4r	.	4r	.
.	.	.	.	4c#X	.	.	.	4a	o	4ee	o
=68	=68	=68	=68	=68	=68	=68	=68	=68	=68	=68	=68
1D	-zo,	2r	.	2d	-zo,	0d	-zo,	4dd	fra	4ff	fra
.	.	.	.	.	.	.	.	4ee	le	4gg	le
.	.	4r	.	4r	.	.	.	8ffL	due,	8aaL	due,
.	.	.	.	.	.	.	.	8ee	.	8gg	.
.	.	4d	o	4A	o	.	.	8dd	.	8ff	.
.	.	.	.	.	.	.	.	8ccJ	.	8eeJ	.
[1D	fa	4f	fra	4d	fra	.	.	4b-y	.	2dd	.
.	.	4g	le	4e	le	.	.	8aL	.	.	.
.	.	.	.	.	.	.	.	8gJ	.	.	.
.	.	8aL	due	8fL	due,	.	.	4f	.	4r	.
.	.	8g	.	8e	.	.	.	.	.	.	.
.	.	8f	.	8d	.	.	.	4a	o	4dd	o
.	.	8eJ	.	8cJ	.	.	.	.	.	.	.
=69	=69	=69	=69	=69	=69	=69	=69	=69	=69	=69	=69
0D]	.	1d	.	4B-y	.	2r	.	4dd	fra	4ff	fra
.	.	.	.	8AL	.	.	.	4ee	le	4gg	le
.	.	.	.	8GJ	.	.	.	.	.	.	.
.	.	.	.	2F	.	4r	.	8ffL	due	8aaL	due
.	.	.	.	.	.	.	.	8ee	.	8gg	.
.	.	.	.	.	.	4d	o	8dd	.	8ff	.
.	.	.	.	.	.	.	.	8ccJ	.	8eeJ	.
.	.	2r	.	4r	.	4.f	fra	4b-y	.	4dd	.
.	.	.	.	4f	o	.	.	8aL	.	4ff	fa
.	.	.	.	.	.	8g	le	8gJ	.	.	.
.	.	2A	fa	4d	fra	4.a	due	4f	.	4.ff	ter-
.	.	.	.	4d	le	.	.	4a	fa	.	.
.	.	.	.	.	.	16gL	.	.	.	16eeL	.
.	.	.	.	.	.	16fJ	.	.	.	16ddJ	.
=70	=70	=70	=70	=70	=70	=70	=70	=70	=70	=70	=70
1A	ter-	1A	ter-	4e	due	4e	.	1a	ter-	4cc#X	.
.	.	.	.	4f	fa	4d	fa	.	.	2dd	.
.	.	.	.	2e	ter-	2e	ter-	.	.	.	.
.	.	.	.	.	.	.	.	.	.	4cc#X	.
=71	=71	=71	=71	=71	=71	=71	=71	=71	=71	=71	=71
00Dl	-zo.	00Al	-zo.	00dl	-zo.	00f#Xl	-zo.	00al	-zo.	00ddl	-zo.
==	==	==	==	==	==	==	==	==	==	==	==
*-	*-	*-	*-	*-	*-	*-	*-	*-	*-	*-	*-
!!!system-decoration: [*]
!!!RDF**kern: i = editorial accidental
!!!RDF**kern: l = terminal long
!!!ENC: Emiliano Ricciardi
!!!END: 2019
!!!EED: Coluzzi, Seth
!!!EEV: 2019/04/21
!!!YEC: Copyright 2018 Emiliano Ricciardi, All Rights Reserved
!!!ONB: Translated from MusicXML on 2019/04/21 and edited by Craig Stuart Sapp
!!@@BEGIN:	VERSEDATA
!!@SOLERTI:	183
!!@CATALOGNUM:	Trm0183
!!@LAST_MODIFIED: 2020/07/12
!!@TITLE:		Di nettare amoroso ebro la mente
!!@GENRE:		sonetto
!!@MANUSRC:	A<sub>1</sub>, A<sub>3</sub>, Amz, Brn, C, F<sub>1</sub>, Flc<sub>2</sub>, I<sub>4</sub>, I<sub>5</sub>, P<sub>4</sub>, Pt, R<sub>7</sub>, Ts<sub>1</sub>, V<sub>8</sub>, V<sub>13/TS1</sub>, VE<sub>1</sub>, W
!!@PRINTSRC:	8, 9, 11, 12, 13, 15, 20, 24, 29, 33, 67, 141, 166, 169
!!@@BEGIN:	VERSES
!!@ABOUTIT:	Descrive l'atto nel quale vide baciarsi due donne amate da lui.
!!@ABOUTEN:	He describes the act of seeing two women he loved kiss each other.
!!@EDITOR:	Solerti, Angelo
!!@EDITION_TITLE: Le Rime di Torquato Tasso
!!@EDITION_LOC:	Bologna
!!@EDITION_PUB:	Romagnoli-Dall’Acqua
!!@EDITION_DATE:  1898-1902
!!@EDITION_VOL:	2
!!@EDITION_PAGE:  273
!!@TRANSLATOR:	Maria Pastore Passaro; adapted by Emiliano Ricciardi and Amyrose McCue Gill
!!@TRANSLATION_TITLE: Rhymes of Love
!!@TRANSLATION_LOC: Mineola, NY
!!@TRANSLATION_PUB: Legas
!!@TRANSLATION_DATE: 2011
!!@TRANSLATION_PAGE: 146-49
!!@VERSE:
!!	Di nettare amoroso ebro la mente
!!	Rapto fui, né so come, in chiusa chiostra,
!!	E due belle d'Amor guerriere in giostra
!!	Vidi con l'arme ond'egli è si possente;
!!@VERSE:
!!	Vidi che in dolce arringo alteramente
!!	Fer pria di lor beltà leggiadra mostra,
!!	Poi movendosi incontra ove s'innnostra
!!	La bocca si fer&icirc;r di bacio ardente.
!!@VERSE:
!!	Suonàr le labra e vi restaro i segni
!!	De' colpi impressi. Amor, deh, perché a vòto
!!	Tant'arme e tai percosse usar da scherzo?
!!@VERSE:
!!	Provinsi in vera pugna, e non si sdegni
!!	Scontro d'amante. Amor, me, tuo devoto,
!!	Opponi a l'una, o fra le due fa terzo.
!!@TVERSE:
!!	[With] my mind drunk on love’s nectar,
!!	I was captured, and know not how, in a sealed cloister,
!!	And two of Love’s warrior beauties in a joust
!!	I saw, with the weapons whereby He is so mighty;
!!@TVERSE:
!!	I saw that in the sweet fight proudly
!!	They first made a graceful show of their beauty.
!!	Then, moving together to where they turn to ruby,
!!	They wounded their mouths with an ardent kiss.
!!@TVERSE:
!!	Their lips resounded, and on them remained the signs
!!	Of the blows [that] bruised [them]. Love, oh why
!!	[Are] such weapons and such strikes used emptily in jest?
!!@TVERSE:
!!	Let them prove themselves in a real fight and not disdain
!!	A lover’s skirmish. Love, [let] me, your devotee,
!!	Oppose one – or, between the two, make a third.
!!@@END:		VERSES
!!@OTHER_CRIT_ED:   Torquato Tasso, <i>Rime d’amore (secondo il codice
!!		Chigiano L VIII 302)</i>, eds. Franco Gavazzeni and
!!		Vercingetorige Martignone, vol. 4 of <i>Edizione
!!		Nazionale delle opere di Torquato Tasso</i>
!!		(Alessandria: Edizioni Dell’Orso, 2004), 106.
!!@ATTRIBUTION_ABOUT:	Secure
!!		<br>
!!		Among other sources (see Literary Sources), this poem appears in the autograph Chigiano
!!		L.VIII.302 (Biblioteca Vaticana, Rome), compiled
!!		around 1584&ndash;85.
!!@DATING:
!!@DEDICATEE:	Peperara, Laura ?
!!@COMMENTARY:
!!@@END:		VERSEDATA
!!@@BEGIN:	SETTING
!!@CATALOGNUM:	Trm0183b
!!@RIMETITLE:	Di nettare amoroso ebro la mente
!!@SOLERTI:	183
!!@COMPOSER:	Marenzio, Luca
!!@PRINCEPSTITLE:	Il quarto libro de madrigali a sei voci
!!@PRINCEPSLOC:	Venetia
!!@NORMLOC:	Venice
!!@NORMPUB:	Giacomo Vincenzi
!!@NORMPUBSHORT:	G. Vincenzi
!!@PRINCEPSPUB:	Vincenti
!!@PRINCEPSYEAR:	1587
!!@PRINCEPSRISM:	M 510
!!@REPRINTS:	M0511, M0512, M0513, M0514, M0523, M0524, M0528
!!@OVOICES:	6
!!@EXTANTVOICES:	6
!!@PARTBOOKS:	
!!@EXTPARTBOOKS:	
!!@OCLEFS:	G2,G2,C2,C3,C3,F3
!!@OMENSURATION:	C; 3/2; C
!!@OKEYSIG:	b-
!!@FINAL:	(A)D
!!@TIMPEDITOR:	Coluzzi, Seth
!!@NOTE:		
!!@@END:		SETTING
